ix/global-refresh_outline.svg

<svg viewBox="0 0 24 24" fill="none" xmlns="http://www.w3.org/2000/svg" height="1em" width="1em">
  <path d="M12 22.75C6.07 22.75 1.25 17.93 1.25 12C1.25 6.07 6.07 1.25 12 1.25C17.93 1.25 22.75 6.07 22.75 12C22.75 12.41 22.41 12.75 22 12.75C21.59 12.75 21.25 12.41 21.25 12C21.25 6.9 17.1 2.75 12 2.75C6.9 2.75 2.75 6.9 2.75 12C2.75 17.1 6.9 21.25 12 21.25C12.41 21.25 12.75 21.59 12.75 22C12.75 22.41 12.41 22.75 12 22.75Z" fill="#292D32"/>
  <path d="M9.00022 21.75H8.00022C7.59022 21.75 7.25022 21.41 7.25022 21C7.25022 20.59 7.57023 20.26 7.98023 20.25C6.41023 14.89 6.41023 9.11 7.98023 3.75C7.58023 3.74 7.25022 3.41 7.25022 3C7.25022 2.59 7.59022 2.25 8.00022 2.25H9.00022C9.24022 2.25 9.47021 2.37 9.61021 2.56C9.75021 2.76 9.79021 3.00999 9.71021 3.23999C7.83021 8.88999 7.83021 15.12 9.71021 20.77C9.79021 21 9.75021 21.25 9.61021 21.45C9.47021 21.65 9.24022 21.75 9.00022 21.75Z" fill="#292D32"/>
  <path d="M16.4604 12.75C16.0504 12.75 15.7104 12.41 15.7104 12C15.7104 9.01996 15.2304 6.06995 14.2904 3.23995C14.1604 2.84995 14.3704 2.41994 14.7604 2.28994C15.1504 2.15994 15.5804 2.36997 15.7104 2.75997C16.7004 5.73997 17.2104 8.84996 17.2104 12C17.2104 12.41 16.8704 12.75 16.4604 12.75Z" fill="#292D32"/>
  <path d="M12 17.2098C9.2 17.2098 6.43 16.8098 3.75 16.0198C3.74 16.4198 3.41 16.7498 3 16.7498C2.59 16.7498 2.25 16.4098 2.25 15.9998V14.9998C2.25 14.7598 2.37 14.5298 2.56 14.3898C2.75 14.2498 3.00999 14.2098 3.23999 14.2898C6.06999 15.2298 9.02 15.7098 12 15.7098C12.41 15.7098 12.75 16.0498 12.75 16.4598C12.75 16.8698 12.41 17.2098 12 17.2098Z" fill="#292D32"/>
  <path d="M21.0007 9.74989C20.9207 9.74989 20.8407 9.73991 20.7607 9.70991C15.1107 7.82991 8.88068 7.82991 3.23068 9.70991C2.84068 9.83991 2.41067 9.62988 2.28067 9.23988C2.15067 8.84988 2.36067 8.41986 2.75067 8.28986C8.71067 6.29986 15.2707 6.29986 21.2207 8.28986C21.6107 8.41986 21.8207 8.84988 21.6907 9.23988C21.6107 9.54988 21.3107 9.74989 21.0007 9.74989Z" fill="#292D32"/>
  <path d="M18.2596 22.7498C15.7796 22.7498 13.7695 20.7298 13.7695 18.2598C13.7695 15.7898 15.7896 13.7598 18.2596 13.7598C18.7596 13.7598 19.2596 13.8297 19.7296 13.9797C20.1296 14.0997 20.3496 14.5197 20.2296 14.9197C20.1096 15.3197 19.6896 15.5397 19.2896 15.4197C18.9596 15.3197 18.6096 15.2698 18.2596 15.2698C16.6096 15.2698 15.2695 16.6098 15.2695 18.2698C15.2695 19.9298 16.6096 21.2598 18.2596 21.2598C19.9096 21.2598 21.2495 19.9198 21.2495 18.2698C21.2495 17.6698 21.0795 17.0997 20.7495 16.6097C20.5195 16.2697 20.6095 15.7998 20.9595 15.5698C21.2995 15.3398 21.7695 15.4298 21.9995 15.7798C22.4995 16.5198 22.7596 17.3898 22.7596 18.2798C22.7496 20.7298 20.7296 22.7498 18.2596 22.7498Z" fill="#292D32"/>
  <path d="M20.0393 15.5498C19.8293 15.5498 19.6193 15.4598 19.4693 15.2898L18.2193 13.8598C17.9493 13.5498 17.9793 13.0698 18.2893 12.7998C18.5993 12.5298 19.0693 12.5598 19.3493 12.8698L20.5993 14.2998C20.8693 14.6098 20.8393 15.0898 20.5293 15.3598C20.3893 15.4898 20.2193 15.5498 20.0393 15.5498Z" fill="#292D32"/>
  <path d="M18.5805 16.6102C18.3505 16.6102 18.1205 16.5002 17.9705 16.3002C17.7305 15.9702 17.8005 15.5002 18.1305 15.2502L19.5905 14.1902C19.9205 13.9402 20.3905 14.0202 20.6405 14.3502C20.8805 14.6802 20.8105 15.1502 20.4805 15.4002L19.0205 16.4602C18.8905 16.5602 18.7405 16.6102 18.5805 16.6102Z" fill="#292D32"/>
</svg>

<svg viewBox="0 0 24 24" fill="none" xmlns="http://www.w3.org/2000/svg" height="1em" width="1em">
  <path d="M12 22.75C6.07 22.75 1.25 17.93 1.25 12S6.07 1.25 12 1.25 22.75 6.07 22.75 12c0 .41-.34.75-.75.75s-.75-.34-.75-.75c0-5.1-4.15-9.25-9.25-9.25S2.75 6.9 2.75 12 6.9 21.25 12 21.25c.41 0 .75.34.75.75s-.34.75-.75.75Z" fill="#292D32"/>
  <path d="M9 21.75H8c-.41 0-.75-.34-.75-.75s.32-.74.73-.75a29.49 29.49 0 0 1 0-16.5.752.752 0 0 1-.73-.75c0-.41.34-.75.75-.75h1c.24 0 .47.12.61.31.14.2.18.45.1.68a27.948 27.948 0 0 0 0 17.53c.08.23.04.48-.1.68-.14.2-.37.3-.61.3Zm7.46-9c-.41 0-.75-.34-.75-.75 0-2.98-.48-5.93-1.42-8.76-.13-.39.08-.82.47-.95.39-.13.82.08.95.47.99 2.98 1.5 6.09 1.5 9.24 0 .41-.34.75-.75.75Z" fill="#292D32"/>
  <path d="M12 17.21c-2.8 0-5.57-.4-8.25-1.19-.01.4-.34.73-.75.73s-.75-.34-.75-.75v-1c0-.24.12-.47.31-.61s.45-.18.68-.1c2.83.94 5.78 1.42 8.76 1.42.41 0 .75.34.75.75s-.34.75-.75.75Zm9-7.46c-.08 0-.16-.01-.24-.04a27.948 27.948 0 0 0-17.53 0 .753.753 0 0 1-.95-.47c-.13-.39.08-.82.47-.95a29.318 29.318 0 0 1 18.47 0c.39.13.6.56.47.95-.08.31-.38.51-.69.51Zm-2.74 13c-2.48 0-4.49-2.02-4.49-4.49s2.02-4.5 4.49-4.5c.5 0 1 .07 1.47.22.4.12.62.54.5.94a.75.75 0 0 1-.94.5c-.33-.1-.68-.15-1.03-.15-1.65 0-2.99 1.34-2.99 3s1.34 2.99 2.99 2.99c1.65 0 2.99-1.34 2.99-2.99 0-.6-.17-1.17-.5-1.66a.746.746 0 0 1 .21-1.04c.34-.23.81-.14 1.04.21.5.74.76 1.61.76 2.5-.01 2.45-2.03 4.47-4.5 4.47Z" fill="#292D32"/>
  <path d="M20.04 15.55c-.21 0-.42-.09-.57-.26l-1.25-1.43a.756.756 0 0 1 .07-1.06c.31-.27.78-.24 1.06.07l1.25 1.43c.27.31.24.79-.07 1.06-.14.13-.31.19-.49.19Z" fill="#292D32"/>
  <path d="M18.58 16.61c-.23 0-.46-.11-.61-.31-.24-.33-.17-.8.16-1.05l1.46-1.06c.33-.25.8-.17 1.05.16.24.33.17.8-.16 1.05l-1.46 1.06a.71.71 0 0 1-.44.15Z" fill="#292D32"/>
</svg>
